X:66
T:Musical Priest, The
S:The Session: https://thesession.org/tunes/73#setting55381
C:Traditional
R:reel
K:Bmin
M:4/4
L:1/8
Q:1/4=120
BA|:"Bm" FB BA BABd|"A"cBAf ecBA|"Bm"FB BA BcdB|1"A"cBAc "Bm"B2 BA:|2"A"cBAc "Bm"B2 Bc||
|:"D"d2 dc dfed|"A"(3cBA eA fA eA|"Bm"dcBc "D"defb|"A"afec "Bm"B2 Bc:|
|"Bm"dB (3BAB bafb|"A"afec ABce|"Bm"dB (3BAB bafb|"A"afec "Bm"B2 Bc|
|"Bm"dB (3BAB bafb|"A"afec ABce|"Bm"dBBc defb|"A"afec "Bm"B4||

